X: 35287
T: Rose Of Drishane, The
R: hornpipe
M: 4/4
K: Dmajor
|:fe|dAFA de (3fga|baab a2fg|af (3gfe fagf|(3efe (3dcB A2fe|
dAFA defa|baab a2fg|afba gecd|eddc d2:|
|:fg|a2ab afdf|gfaf g2fg|(3agf (3gfe fagf|(3efe (3dcB A2fe|
dAFA de (3fga|baab a2fg|afba gecd|edec d2:|

